assets/anytype/original.svg

<svg viewBox="0 0 24 24" xmlns="http://www.w3.org/2000/svg" fill="#FF6A7B"><path d="m5.333 0h13.334a5.322 5.322 0 0 1 5.333 5.333v13.334a5.322 5.322 0 0 1 -5.333 5.333h-13.334a5.322 5.322 0 0 1 -5.333-5.333v-13.334a5.322 5.322 0 0 1 5.333-5.333zm10.334 7.667v-3h-9.323v3zm0 0v11.666h3v-11.666zm-6.167 11.666a4.833 4.833 0 1 0 0-9.666 4.833 4.833 0 0 0 0 9.666z"/></svg>

<svg xmlns="http://www.w3.org/2000/svg" fill="#ff6a7b" viewBox="0 0 24 24"><path d="M5.333 0h13.334A5.32 5.32 0 0 1 24 5.333v13.334A5.32 5.32 0 0 1 18.667 24H5.333A5.32 5.32 0 0 1 0 18.667V5.333A5.32 5.32 0 0 1 5.333 0m10.334 7.667v-3H6.344v3zm0 0v11.666h3V7.667zM9.5 19.333a4.833 4.833 0 1 0 0-9.666 4.833 4.833 0 0 0 0 9.666"/></svg>
